X: 1299
T: Kürdîlihicazkâr Sazsemâîsi
C: Haydar Tatlıyay
O: Turkey
F: http://compmusic.upf.edu/node/140
N: kurdilihicazkar--sazsemaisi--aksaksemai----haydar_tatliyay
N: makam= kurdilihicazkar
N: form= sazsemaisi
N: usul= aksaksemai = 10/8
M: 10/8
L: 1/16
K: C _B _e _A 
Q: 1/4=156
%%MIDI tuningsystem comma53
g3.e .f.gf3/2d/ e3/2c/d3/2B/ c3/2_7/8A/B3/2G/ _A3/2F/G2  | \
w:  1. HANE  | 
c'3.a .b.c'b3/2g/ a3/2f/g3/2e/ f3/2d/e3/2c/ d3/2B/c2  | 
w:   | 
e2d2 c2B2 (3ccBA2 (3BBAG4z2  | f2_2/4e2 d2(3ede (3ggfed (3ffed4z2  | 
w:   |   | 
=a2g2 f2g2 b2{a}g2 a2{g}f2 g2{f}_2/4e2  | \
w:   | 
c_2/4edf egf=a gbag f_3/4ed4z2  | 
w:   | 
g3e fg(3.e'.d'.c' (3.b.a.g(3.f.e.d (3.c.B.A(3GAB (3cdeg2  | 
w:  TESLİM  | 
f3d ef(3_d'c'b (3agf(3edc (3BAG(3FGA (3Bcde2  | 
w:   | 
e3/2d/ec B2(3ggf ge(3c'c'b c'a(3ggf (3eedc2  | 
w:   | 
B2c2 d2B3/2A/ Gc(3BBA AGG4z2  | g3e fg(3.e'.d'.c' (3.b.a.g(3.f.e.d (3.c.B.A(3GAB (3cdeg2  | 
w:   |  TESLİM  | 
f3d ef(3_d'c'b (3agf(3edc (3BAG(3FGA (3Bcde2  | 
w:   | 
e3/2d/ec B2(3ggf ge(3c'c'b c'a(3ggf (3eedc2  | 
w:   | 
B2c2 d2B3/2A/ Gc(3BBA AGG4z2  | .e4 .e2e/d/e/c'/ b/a/g/f/e/d/e/g/ f/e/d/c/G/A/B/c/ B/A/G/F/E2  | 
w:   |  2. HANE  | 
e2d2 c2B3GA3FG4z2  | a2g2 f2e3g.f2 .^f2g4z2  | \
w:   |   | 
c'2b2 =a2g2 f2_2/4e2 d2e/d/e/f/ g/f/e/d/c2  | 
w:   | 
c_2/4edf egf=a gbag f_3/4ed4z2  | \
w:   | 
g3e fg(3.e'.d'.c' (3.b.a.g(3.f.e.d (3.c.B.A(3GAB (3cdeg2  | 
w:  TESLİM  | 
f3d ef(3_d'c'b (3agf(3edc (3BAG(3FGA (3Bcde2  | 
w:   | 
e3/2d/ec B2(3ggf ge(3c'c'b c'a(3ggf (3eedc2  | 
w:   | 
B2c2 d2B3/2A/ Gc(3BBA AGG4z2  | g3e fg(3.e'.d'.c' (3.b.a.g(3.f.e.d (3.c.B.A(3GAB (3cdeg2  | 
w:   |  TESLİM  | 
f3d ef(3_d'c'b (3agf(3edc (3BAG(3FGA (3Bcde2  | 
w:   | 
e3/2d/ec B2(3ggf ge(3c'c'b c'a(3ggf (3eedc2  | 
w:   | 
B2c2 d2B3/2A/ Gc(3BBA AGG4z2  | G2c2 _2/4e2.g2 f/e/d/e/.b2 a/g/f/g/.c'2 b/a/g/f/_e2  | 
w:   |  3. HANE  | 
B3/2e/g3/2b/ =ac'b3/2d'/ c'b_a3/2g/ fge4z2  | \
w:   | 
b/a/b/c'/d'/c'/b/a/ g2a/g/a/b/ c'/b/a/g/f/e/f/g/ b/a/g/f/e/d/e/f/ g/f/e/d/c2  | 
w:   | 
B2=A_A G2^F2 GAB2 _1/4Bcd4z2  | g3e fg(3.e'.d'.c' (3.b.a.g(3.f.e.d (3.c.B.A(3GAB (3cdeg2  | 
w:   |  TESLİM  | 
f3d ef(3_d'c'b (3agf(3edc (3BAG(3FGA (3Bcde2  | 
w:   | 
e3/2d/ec B2(3ggf ge(3c'c'b c'a(3ggf (3eedc2  | 
w:   | 
B2c2 d2B3/2A/ Gc(3BBA AGG4z2  | g3e fg(3.e'.d'.c' (3.b.a.g(3.f.e.d (3.c.B.A(3GAB (3cdeg2  | 
w:   |  TESLİM  | 
f3d ef(3_d'c'b (3agf(3edc (3BAG(3FGA (3Bcde2  | 
w:   | 
e3/2d/ec B2(3ggf ge(3c'c'b c'a(3ggf (3eedc2  | 
w:   | 
B2c2 d2B3/2A/ Gc(3BBA AGG4z2  | z8  | \
w:   |  | 
.G3A.B3c  | .d3e.f3a  | 
w:  4. HANE  |   | 
g4z4  | b3ac'bd'c'  | bagfedef  | e4z4  | b3ag3f  | 
w:   |   |   |   |   | 
e3dc3B  | A3GF3E  | D4(3G2A2B2  | e3dc3B  | \
w:   |   |   |   | 
A4(3G2c2e2  | g3fe3d  | 
w:   |   | 
c4(3G2c2e2  | b3ag3f  | e4(3G2c2e2  | c'3ba3g  | \
w:   |   |   |   | 
f4(3d2f2a2  | d'3c'b3a  | 
w:   |   | 
g3fe3d  | c3BA3G  | F2A2G2G2  | .G2.G2D2G2  | \
w:   |   |   |   | 
.G2.G2D2G2  | edegfedc  | 
w:   |   | 
B=ABdcB_AG  | FGAcBAGF  | EDEFGABc  | 
w:   |   |   | 
edegfedc  | B=ABdcB_AG  | FGAcBAGF  | 
w:   |   |   | 
E4z4  | agac'bagf  | edegfedc  | BcdedcBA  | 
w:   |   |   |   | 
GABcdefg  | agac'bagf  | edegfedc  | 
w:   |   |   | 
BcdedcBA  | .G4z4  | babd'c'bag  | fgac'bagf  | 
w:   |   |   |   | 
edegfedc  | GABcdefg  | babd'c'bag  | 
w:   |   |   | 
fgac'bagf  | edegfedc  | .c4z4  | c'bac'bagb  | 
w:   |   |   |   | 
agfag_2/4ef2  | bagbagfa  | gfegfde2  | 
w:   |   |   | 
agfagfeg  | fedfedc2  | GABcdefg  | 
w:   |   |   | 
agfag2z2  | c'bac'bagb  | agfag_2/4ef2  | 
w:   |   |   | 
bagbagfa  | gfegfde2  | agfagfeg  | 
w:   |   |   | 
fedfedc2  | GABcdefg  | ac'bagfed  | 
w:   |   |   | 
cedcBAGF  | .G4z4  | z20  | g3e fg(3.e'.d'.c' (3.b.a.g(3.f.e.d (3.c.B.A(3GAB (3cdeg2  | 
w:   |   |  |  TESLİM  | 
f3d ef(3_d'c'b (3agf(3edc (3BAG(3FGA (3Bcde2  | 
w:   | 
e3/2d/ec B2(3ggf ge(3c'c'b c'a(3ggf (3eedc2  | 
w:   | 
B2c2 d2B3/2A/ Gc(3BBA AGG4z2  | g3e fg(3.e'.d'.c' (3.b.a.g(3.f.e.d (3.c.B.A(3GAB (3cdeg2  | 
w:   |  TESLİM  | 
f3d ef(3_d'c'b (3agf(3edc (3BAG(3FGA (3Bcde2  | 
w:   | 
e3/2d/ec B2(3ggf ge(3c'c'b c'a(3ggf (3eedc2  | 
w:   | 
B2c2 d2B3/2A/ Gc(3BBA AGG4z2  | |


